static/vast_expenses_logo.svg

<?xml version="1.0" encoding="UTF-8" standalone="no"?>
<svg
   xmlns:dc="http://purl.org/dc/elements/1.1/"
   xmlns:cc="http://creativecommons.org/ns#"
   xmlns:rdf="http://www.w3.org/1999/02/22-rdf-syntax-ns#"
   xmlns:svg="http://www.w3.org/2000/svg"
   xmlns="http://www.w3.org/2000/svg"
   xmlns:sodipodi="http://sodipodi.sourceforge.net/DTD/sodipodi-0.dtd"
   xmlns:inkscape="http://www.inkscape.org/namespaces/inkscape"
   width="45"
   height="45"
   viewBox="0 0 11.90625 11.90625"
   version="1.1"
   id="svg8"
   inkscape:version="1.0.2 (e86c870879, 2021-01-15)"
   sodipodi:docname="vast_expenses_logo.svg">
  <defs
     id="defs2">
    <rect
       x="-4.8295779"
       y="-38.361146"
       width="100.1233"
       height="2.9085598"
       id="rect982" />
    <rect
       x="1.6014498"
       y="-45.245983"
       width="137.53372"
       height="85.541845"
       id="rect976" />
  </defs>
  <sodipodi:namedview
     id="base"
     pagecolor="#ffffff"
     bordercolor="#666666"
     borderopacity="1.0"
     inkscape:pageopacity="0.0"
     inkscape:pageshadow="2"
     inkscape:zoom="16"
     inkscape:cx="8.6625861"
     inkscape:cy="17.170623"
     inkscape:document-units="mm"
     inkscape:current-layer="g972"
     inkscape:document-rotation="0"
     showgrid="false"
     units="px"
     inkscape:pagecheckerboard="true"
     inkscape:window-width="1920"
     inkscape:window-height="1056"
     inkscape:window-x="0"
     inkscape:window-y="0"
     inkscape:window-maximized="1" />
  <metadata
     id="metadata5">
    <rdf:RDF>
      <cc:Work
         rdf:about="">
        <dc:format>image/svg+xml</dc:format>
        <dc:type
           rdf:resource="http://purl.org/dc/dcmitype/StillImage" />
        <dc:title></dc:title>
      </cc:Work>
    </rdf:RDF>
  </metadata>
  <g
     inkscape:label="Layer 1"
     inkscape:groupmode="layer"
     id="layer1">
    <g
       id="g869"
       transform="matrix(0.44848782,0.77680368,-1.0061174,0.58088215,9.4525449,-0.71366531)">
      <g
         id="g972"
         transform="translate(-0.58574088,-0.37768779)">
        <path
           style="opacity:1;fill:#3e4837;fill-opacity:1;stroke:#000000;stroke-width:0.05;stroke-linecap:butt;stroke-linejoin:miter;stroke-miterlimit:4;stroke-dasharray:none;stroke-opacity:1"
           d="M 2.847813,2.5065314 V 9.429055 c 0,0 0.9226833,0.2047322 1.3965011,0.2047322 0.4738179,0 1.3965011,-0.2047322 1.3965011,-0.2047322 V 2.4935591 Z"
           id="path38"
           sodipodi:nodetypes="ccaccc" />
        <path
           style="fill:#6f916f;fill-opacity:1;stroke:#000000;stroke-width:0.0615284;stroke-linecap:butt;stroke-linejoin:miter;stroke-miterlimit:4;stroke-dasharray:none;stroke-opacity:1"
           d="m 2.8531164,2.5048138 c 0,0 1.1011217,-2.40795044 1.3970908,-2.53988189 0.3523225,1e-8 1.3970907,2.53988189 1.3970907,2.53988189"
           id="path865"
           sodipodi:nodetypes="ccc" />
        <path
           style="fill:#3e4837;stroke:#000000;stroke-width:0.0489802;stroke-linecap:butt;stroke-linejoin:miter;stroke-miterlimit:4;stroke-dasharray:none;stroke-opacity:1"
           d="M 2.8274682,6.469118 0.92002428,9.525244 C 1.2426359,9.509147 1.5652475,9.49305 1.8878591,9.4769529 L 2.5979192,9.4415239 2.847813,9.4290549 Z"
           id="path871"
           sodipodi:nodetypes="cccccc" />
        <path
           style="fill:#3e4837;stroke:#000000;stroke-width:0.0489802;stroke-linecap:butt;stroke-linejoin:miter;stroke-miterlimit:4;stroke-dasharray:none;stroke-opacity:1"
           d="M 5.6517864,6.5029933 7.5694021,9.5151797 5.6408152,9.429055 Z"
           id="path871-6"
           sodipodi:nodetypes="cccc" />
        <path
           style="fill:#d7f4e3;stroke:#000000;stroke-width:0.0244901;stroke-linecap:butt;stroke-linejoin:miter;stroke-miterlimit:4;stroke-dasharray:none;stroke-opacity:1"
           d="M 1.9507421,9.4692852 2.8543939,7.811517 2.8545679,7.0680395 2.1583894,8.8142354 2.4600294,7.0438183 2.0571835,7.6991069 C 1.9849593,8.271971 2.0167508,8.8855751 1.9507421,9.4692852 Z"
           id="path871-7"
           sodipodi:nodetypes="ccccccc" />
        <path
           style="fill:#d7f4e3;stroke:#000000;stroke-width:0.0244901;stroke-linecap:butt;stroke-linejoin:miter;stroke-miterlimit:4;stroke-dasharray:none;stroke-opacity:1"
           d="m 5.6517864,6.5029933 0.4973569,0.8324507 -0.2060426,0.00856 0.035014,0.7944938 0.7237937,0.010272 0.1613168,0.2532708 -0.8830704,-0.00534 0.019137,0.761949 1.3370561,-0.021127 0.2330544,0.3776567 -1.9285869,-0.086125 z"
           id="path871-6-5"
           sodipodi:nodetypes="cccccccccccc" />
        <path
           style="opacity:1;fill:#d7f4e3;fill-opacity:1;stroke:#000000;stroke-width:0.00979604;stroke-linecap:butt;stroke-linejoin:miter;stroke-miterlimit:4;stroke-dasharray:0, 0.10775600000000000;stroke-dashoffset:0;stroke-opacity:1"
           d="m 4.2502072,-0.03506809 c 0,0 -0.5728784,0.99578095 -0.823978,1.50463329 C 3.2563623,1.8137997 2.965103,2.5157617 2.965103,2.5157617 l 0.01297,6.9386557 0.2093792,0.044278 -0.024653,-6.9819601 c 0,0 0.2350317,-0.6941536 0.3769455,-1.0355628 0.212724,-0.51176174 0.7104625,-1.51624059 0.7104625,-1.51624059 z"
           id="path937"
           sodipodi:nodetypes="caccccac" />
      </g>
      <text
         xml:space="preserve"
         id="text980"
         style="fill:black;fill-opacity:1;line-height:1.25;stroke:none;font-family:sans-serif;font-style:normal;font-weight:normal;font-size:10.36747839px;white-space:pre;shape-inside:url(#rect982);" />
    </g>
  </g>
</svg>

<?xml version="1.0" encoding="UTF-8"?>
<svg width="45" height="45" version="1.1" viewBox="0 0 11.906 11.906" xmlns="http://www.w3.org/2000/svg" xmlns:cc="http://creativecommons.org/ns#" xmlns:dc="http://purl.org/dc/elements/1.1/" xmlns:rdf="http://www.w3.org/1999/02/22-rdf-syntax-ns#" xmlns:xlink="http://www.w3.org/1999/xlink">
 <defs>
  <linearGradient id="linearGradient963" x1="2.9112" x2="4.1963" y1="4.9414" y2="4.9414" gradientTransform="translate(.053905 -.20961)" gradientUnits="userSpaceOnUse">
   <stop style="stop-color:#338000" offset="0"/>
   <stop style="stop-color:#338000;stop-opacity:.80784" offset=".37436"/>
   <stop style="stop-color:#338000;stop-opacity:0" offset="1"/>
  </linearGradient>
 </defs>
 <metadata>
  <rdf:RDF>
   <cc:Work rdf:about="">
    <dc:format>image/svg+xml</dc:format>
    <dc:type rdf:resource="http://purl.org/dc/dcmitype/StillImage"/>
    <dc:title/>
   </cc:Work>
  </rdf:RDF>
 </metadata>
 <g transform="matrix(.44849 .7768 -1.0061 .58088 9.4525 -.71367)">
  <g transform="translate(-.58574 -.37769)">
   <path d="m2.8478 2.5065v6.9225s0.92268 0.20473 1.3965 0.20473c0.47382 0 1.3965-0.20473 1.3965-0.20473v-6.9355z" style="fill:#3e4837;stroke-width:.05;stroke:#000"/>
   <path d="m2.8531 2.5048s1.1011-2.408 1.3971-2.5399c0.35232 1e-8 1.3971 2.5399 1.3971 2.5399" style="fill:#7c916f;stroke-width:.061528;stroke:#000"/>
   <path d="m2.8275 6.4691-1.9074 3.0561c0.32261-0.016097 0.64522-0.032194 0.96783-0.048291l0.95995-0.047898z" style="fill:#3e4837;stroke-width:.04898;stroke:#000"/>
   <path d="m5.6518 6.503 1.9176 3.0122-1.9286-0.086125z" style="fill:#3e4837;stroke-width:.04898;stroke:#000"/>
   <path d="m1.9507 9.4693 0.90365-1.6578 1.74e-4 -0.74348-0.69618 1.7462 0.30164-1.7704-0.40285 0.65529c-0.072224 0.57286-0.040433 1.1865-0.10644 1.7702z" style="fill:#7c916f;stroke-width:.02449;stroke:#000"/>
   <path d="m5.6518 6.503 0.49736 0.83245-0.20604 0.00856 0.035014 0.79449 0.72379 0.010272 0.16132 0.25327-0.88307-0.00534 0.019137 0.76195 1.3371-0.021127 0.23305 0.37766-1.9286-0.086125z" style="fill:#7c916f;stroke-width:.02449;stroke:#000"/>
   <path d="m4.2502-0.035068s-0.57288 0.99578-0.82398 1.5046c-0.16987 0.34423-0.46113 1.0462-0.46113 1.0462l0.01297 6.9387 0.20938 0.044278-0.024653-6.982s0.23503-0.69415 0.37695-1.0356c0.21272-0.51176 0.71046-1.5162 0.71046-1.5162z" style="fill:url(#linearGradient963);opacity:.54503;stroke-dasharray:0, 0.107756;stroke-width:.009796;stroke:#000"/>
  </g>
  <g transform="matrix(-.069323 -.77022 1.2921 -.069323 87.887 -14.441)" style="shape-inside:url(#rect976);white-space:pre" aria-label="Vast Expenses">
   <g transform="matrix(.11614 .0049148 -.0020257 .114 -24.628 -61.917)" style="fill:#acf;shape-inside:url(#rect976);white-space:pre">
    <path d="m5.5602-35.908h-1.0023l-2.9108-7.1327h1.0175l1.9743 5.0218 0.42523 1.2605 0.42523-1.2605 1.9642-5.0218h1.0175z" style="fill:#acf"/>
    <path d="m9.8429-35.806q-0.82515 0-1.2403-0.43535t-0.4151-1.1947q0-0.85046 0.55685-1.3061 0.56191-0.4556 1.8072-0.48598l1.2301-0.02025v-0.29867q0-0.66822-0.28349-0.95677-0.28349-0.28855-0.89096-0.28855-0.61253 0-0.89096 0.20755-0.27842 0.20755-0.33411 0.66316l-0.9517-0.08606q0.23286-1.4782 2.197-1.4782 1.0327 0 1.5541 0.47585 0.52141 0.47079 0.52141 1.3668v2.359q0 0.40498 0.10631 0.61253 0.10631 0.20249 0.40498 0.20249 0.13162 0 0.29867-0.03544v0.56697q-0.34423 0.081-0.70365 0.081-0.50622 0-0.73909-0.26324-0.2278-0.2683-0.25818-0.83527h-0.03037q-0.3493 0.62772-0.81502 0.89096-0.46066 0.25818-1.1238 0.25818zm0.20755-0.6834q0.50116 0 0.89096-0.2278 0.38979-0.2278 0.61253-0.62266 0.2278-0.39992 0.2278-0.82009v-0.45054l-0.99726 0.02025q-0.64291 0.01013-0.97702 0.13162-0.32905 0.12149-0.50623 0.37461-0.17718 0.25311-0.17718 0.66316 0 0.44548 0.23793 0.68847 0.24299 0.24299 0.68847 0.24299z" style="fill:#acf"/>
    <path d="m18.322-37.421q0 0.77453-0.58722 1.1947-0.58216 0.42017-1.6351 0.42017-1.0226 0-1.5794-0.33411-0.55179-0.33917-0.71884-1.0529l0.8049-0.15693q0.11643 0.44042 0.48092 0.64797 0.36448 0.20249 1.0125 0.20249 0.69353 0 1.0125-0.21262 0.32398-0.21261 0.32398-0.63784 0-0.32398-0.22274-0.52648-0.22274-0.20249-0.71884-0.33411l-0.65303-0.17212q-0.78465-0.20249-1.1188-0.39486-0.32905-0.19743-0.51635-0.47585-0.1873-0.27842-0.1873-0.6834 0-0.74921 0.53154-1.139 0.5366-0.39486 1.5592-0.39486 0.90614 0 1.4377 0.31892 0.5366 0.31892 0.67834 1.0226l-0.82008 0.10125q-0.07593-0.36448-0.41004-0.55685-0.32905-0.19743-0.8859-0.19743-0.6176 0-0.91121 0.1873-0.29361 0.1873-0.29361 0.56697 0 0.23286 0.1215 0.38473 0.12149 0.15187 0.35942 0.25818t1.0023 0.29361q0.7239 0.18224 1.0428 0.33917 0.31892 0.15187 0.50116 0.33917 0.1873 0.1873 0.28855 0.43535 0.10124 0.24299 0.10124 0.55685z" style="fill:#acf"/>
    <path d="m21.501-35.948q-0.45054 0.12149-0.92133 0.12149-1.0934 0-1.0934-1.2403v-3.6549h-0.63278v-0.66316h0.66822l0.2683-1.2251h0.60747v1.2251h1.0125v0.66316h-1.0125v3.4575q0 0.39486 0.12656 0.55685 0.13162 0.15693 0.45054 0.15693 0.18224 0 0.52648-0.07087z" style="fill:#acf"/>
    <path d="m25.308-35.908v-7.1327h5.4116v0.78971h-4.4447v2.2881h4.1409v0.77959h-4.1409v2.4856h4.6522v0.78971z" style="fill:#acf"/>
    <path d="m35.428-35.908-1.4731-2.2476-1.4832 2.2476h-0.98208l1.949-2.8146-1.8578-2.6627h1.0074l1.3668 2.1312 1.3567-2.1312h1.0175l-1.8578 2.6526 1.9743 2.8247z" style="fill:#acf"/>
    <path d="m41.887-38.672q0 2.8652-2.0148 2.8652-1.2656 0-1.7009-0.9517h-0.02531q0.02025 0.0405 0.02025 0.86058v2.1413h-0.91121v-6.5101q0-0.8454-0.03037-1.1188h0.88083q0.0051 0.02025 0.01519 0.1468 0.01012 0.1215 0.02025 0.37967 0.01519 0.25818 0.01519 0.35436h0.02025q0.24299-0.50623 0.64291-0.73909 0.39992-0.23793 1.0529-0.23793 1.0125 0 1.5136 0.67834 0.50116 0.67834 0.50116 2.1312zm-0.95677 0.02025q0-1.1441-0.3088-1.6351-0.3088-0.49104-0.98208-0.49104-0.54166 0-0.85046 0.2278-0.30374 0.2278-0.46573 0.71378-0.15693 0.48092-0.15693 1.2554 0 1.0783 0.34423 1.5895t1.1188 0.51129q0.67834 0 0.98714-0.4961 0.31386-0.50116 0.31386-1.6756z" style="fill:#acf"/>
    <path d="m43.72-38.454q0 0.94158 0.38979 1.4529t1.139 0.51129q0.59228 0 0.94664-0.23793 0.35942-0.23793 0.48598-0.60241l0.79984 0.2278q-0.49104 1.2959-2.2325 1.2959-1.2149 0-1.8528-0.7239-0.63278-0.7239-0.63278-2.1515 0-1.3567 0.63278-2.0806 0.63784-0.7239 1.8174-0.7239 2.4147 0 2.4147 2.9108v0.12149zm2.9665-0.69859q-0.07593-0.86565-0.44042-1.2605-0.36448-0.39992-1.0479-0.39992-0.66316 0-1.0529 0.44548-0.38473 0.44042-0.4151 1.2149z" style="fill:#acf"/>
    <path d="m52.265-35.908v-3.4727q0-0.54166-0.10631-0.84033-0.10631-0.29867-0.33917-0.43029-0.23286-0.13162-0.6834-0.13162-0.65809 0-1.0378 0.45054t-0.37967 1.2504v3.174h-0.91121v-4.308q0-0.95677-0.03037-1.1694h0.86058q0.0051 0.02531 0.01013 0.13668 0.0051 0.11137 0.01012 0.25818 0.01013 0.14174 0.02025 0.54166h0.01519q0.31386-0.56697 0.7239-0.79984 0.4151-0.23793 1.0276-0.23793 0.90108 0 1.3162 0.45054 0.42017 0.44548 0.42017 1.4782v3.6499z" style="fill:#acf"/>
    <path d="m58.663-37.421q0 0.77453-0.58722 1.1947-0.58216 0.42017-1.6351 0.42017-1.0226 0-1.5794-0.33411-0.55179-0.33917-0.71884-1.0529l0.8049-0.15693q0.11643 0.44042 0.48091 0.64797 0.36448 0.20249 1.0125 0.20249 0.69353 0 1.0125-0.21262 0.32398-0.21261 0.32398-0.63784 0-0.32398-0.22274-0.52648-0.22274-0.20249-0.71884-0.33411l-0.65303-0.17212q-0.78465-0.20249-1.1188-0.39486-0.32905-0.19743-0.51635-0.47585-0.1873-0.27842-0.1873-0.6834 0-0.74921 0.53154-1.139 0.5366-0.39486 1.5592-0.39486 0.90614 0 1.4377 0.31892 0.5366 0.31892 0.67834 1.0226l-0.82008 0.10125q-0.07593-0.36448-0.41004-0.55685-0.32905-0.19743-0.8859-0.19743-0.6176 0-0.91121 0.1873-0.29361 0.1873-0.29361 0.56697 0 0.23286 0.12149 0.38473t0.35942 0.25818q0.23793 0.10631 1.0023 0.29361 0.7239 0.18224 1.0428 0.33917 0.31892 0.15187 0.50116 0.33917 0.1873 0.1873 0.28855 0.43535 0.10124 0.24299 0.10124 0.55685z" style="fill:#acf"/>
    <path d="m60.435-38.454q0 0.94158 0.38979 1.4529 0.38979 0.51129 1.139 0.51129 0.59228 0 0.94664-0.23793 0.35942-0.23793 0.48598-0.60241l0.79984 0.2278q-0.49104 1.2959-2.2325 1.2959-1.2149 0-1.8528-0.7239-0.63278-0.7239-0.63278-2.1515 0-1.3567 0.63278-2.0806 0.63784-0.7239 1.8174-0.7239 2.4147 0 2.4147 2.9108v0.12149zm2.9665-0.69859q-0.07593-0.86565-0.44042-1.2605-0.36448-0.39992-1.0479-0.39992-0.66316 0-1.053 0.44548-0.38473 0.44042-0.4151 1.2149z" style="fill:#acf"/>
    <path d="m69.613-37.421q0 0.77453-0.58722 1.1947-0.58216 0.42017-1.6351 0.42017-1.0226 0-1.5794-0.33411-0.55179-0.33917-0.71884-1.0529l0.8049-0.15693q0.11643 0.44042 0.48092 0.64797 0.36448 0.20249 1.0125 0.20249 0.69353 0 1.0125-0.21262 0.32398-0.21261 0.32398-0.63784 0-0.32398-0.22274-0.52648-0.22274-0.20249-0.71884-0.33411l-0.65303-0.17212q-0.78465-0.20249-1.1188-0.39486-0.32905-0.19743-0.51635-0.47585-0.1873-0.27842-0.1873-0.6834 0-0.74921 0.53154-1.139 0.5366-0.39486 1.5592-0.39486 0.90614 0 1.4377 0.31892 0.5366 0.31892 0.67834 1.0226l-0.82009 0.10125q-0.07593-0.36448-0.41004-0.55685-0.32905-0.19743-0.88589-0.19743-0.6176 0-0.91121 0.1873-0.29361 0.1873-0.29361 0.56697 0 0.23286 0.12149 0.38473t0.35942 0.25818 1.0023 0.29361q0.7239 0.18224 1.0428 0.33917 0.31892 0.15187 0.50116 0.33917 0.1873 0.1873 0.28855 0.43535 0.10124 0.24299 0.10124 0.55685z" style="fill:#acf"/>
   </g>
   <g transform="matrix(.11614 .0049148 -.0020257 .114 -24.578 -61.93)">
    <path d="m5.5602-35.908h-1.0023l-2.9108-7.1327h1.0175l1.9743 5.0218 0.42523 1.2605 0.42523-1.2605 1.9642-5.0218h1.0175z" style="fill:#00a"/>
    <path d="m9.8429-35.806q-0.82515 0-1.2403-0.43535t-0.4151-1.1947q0-0.85046 0.55685-1.3061 0.56191-0.4556 1.8072-0.48598l1.2301-0.02025v-0.29867q0-0.66822-0.28349-0.95677-0.28349-0.28855-0.89096-0.28855-0.61253 0-0.89096 0.20755-0.27842 0.20755-0.33411 0.66316l-0.9517-0.08606q0.23286-1.4782 2.197-1.4782 1.0327 0 1.5541 0.47585 0.52141 0.47079 0.52141 1.3668v2.359q0 0.40498 0.10631 0.61253 0.10631 0.20249 0.40498 0.20249 0.13162 0 0.29867-0.03544v0.56697q-0.34423 0.081-0.70365 0.081-0.50622 0-0.73909-0.26324-0.2278-0.2683-0.25818-0.83527h-0.03037q-0.3493 0.62772-0.81502 0.89096-0.46066 0.25818-1.1238 0.25818zm0.20755-0.6834q0.50116 0 0.89096-0.2278 0.38979-0.2278 0.61253-0.62266 0.2278-0.39992 0.2278-0.82009v-0.45054l-0.99726 0.02025q-0.64291 0.01013-0.97702 0.13162-0.32905 0.12149-0.50623 0.37461-0.17718 0.25311-0.17718 0.66316 0 0.44548 0.23793 0.68847 0.24299 0.24299 0.68847 0.24299z" style="fill:#00a"/>
    <path d="m18.322-37.421q0 0.77453-0.58722 1.1947-0.58216 0.42017-1.6351 0.42017-1.0226 0-1.5794-0.33411-0.55179-0.33917-0.71884-1.0529l0.8049-0.15693q0.11643 0.44042 0.48092 0.64797 0.36448 0.20249 1.0125 0.20249 0.69353 0 1.0125-0.21262 0.32398-0.21261 0.32398-0.63784 0-0.32398-0.22274-0.52648-0.22274-0.20249-0.71884-0.33411l-0.65303-0.17212q-0.78465-0.20249-1.1188-0.39486-0.32905-0.19743-0.51635-0.47585-0.1873-0.27842-0.1873-0.6834 0-0.74921 0.53154-1.139 0.5366-0.39486 1.5592-0.39486 0.90614 0 1.4377 0.31892 0.5366 0.31892 0.67834 1.0226l-0.82008 0.10125q-0.07593-0.36448-0.41004-0.55685-0.32905-0.19743-0.8859-0.19743-0.6176 0-0.91121 0.1873-0.29361 0.1873-0.29361 0.56697 0 0.23286 0.1215 0.38473 0.12149 0.15187 0.35942 0.25818t1.0023 0.29361q0.7239 0.18224 1.0428 0.33917 0.31892 0.15187 0.50116 0.33917 0.1873 0.1873 0.28855 0.43535 0.10124 0.24299 0.10124 0.55685z" style="fill:#00a"/>
    <path d="m21.501-35.948q-0.45054 0.12149-0.92133 0.12149-1.0934 0-1.0934-1.2403v-3.6549h-0.63278v-0.66316h0.66822l0.2683-1.2251h0.60747v1.2251h1.0125v0.66316h-1.0125v3.4575q0 0.39486 0.12656 0.55685 0.13162 0.15693 0.45054 0.15693 0.18224 0 0.52648-0.07087z" style="fill:#00a"/>
    <path d="m25.308-35.908v-7.1327h5.4116v0.78971h-4.4447v2.2881h4.1409v0.77959h-4.1409v2.4856h4.6522v0.78971z" style="fill:#00a"/>
    <path d="m35.428-35.908-1.4731-2.2476-1.4832 2.2476h-0.98208l1.949-2.8146-1.8578-2.6627h1.0074l1.3668 2.1312 1.3567-2.1312h1.0175l-1.8578 2.6526 1.9743 2.8247z" style="fill:#00a"/>
    <path d="m41.887-38.672q0 2.8652-2.0148 2.8652-1.2656 0-1.7009-0.9517h-0.02531q0.02025 0.0405 0.02025 0.86058v2.1413h-0.91121v-6.5101q0-0.8454-0.03037-1.1188h0.88083q0.0051 0.02025 0.01519 0.1468 0.01012 0.1215 0.02025 0.37967 0.01519 0.25818 0.01519 0.35436h0.02025q0.24299-0.50623 0.64291-0.73909 0.39992-0.23793 1.0529-0.23793 1.0125 0 1.5136 0.67834 0.50116 0.67834 0.50116 2.1312zm-0.95677 0.02025q0-1.1441-0.3088-1.6351-0.3088-0.49104-0.98208-0.49104-0.54166 0-0.85046 0.2278-0.30374 0.2278-0.46573 0.71378-0.15693 0.48092-0.15693 1.2554 0 1.0783 0.34423 1.5895t1.1188 0.51129q0.67834 0 0.98714-0.4961 0.31386-0.50116 0.31386-1.6756z" style="fill:#00a"/>
    <path d="m43.72-38.454q0 0.94158 0.38979 1.4529t1.139 0.51129q0.59228 0 0.94664-0.23793 0.35942-0.23793 0.48598-0.60241l0.79984 0.2278q-0.49104 1.2959-2.2325 1.2959-1.2149 0-1.8528-0.7239-0.63278-0.7239-0.63278-2.1515 0-1.3567 0.63278-2.0806 0.63784-0.7239 1.8174-0.7239 2.4147 0 2.4147 2.9108v0.12149zm2.9665-0.69859q-0.07593-0.86565-0.44042-1.2605-0.36448-0.39992-1.0479-0.39992-0.66316 0-1.0529 0.44548-0.38473 0.44042-0.4151 1.2149z" style="fill:#00a"/>
    <path d="m52.265-35.908v-3.4727q0-0.54166-0.10631-0.84033-0.10631-0.29867-0.33917-0.43029-0.23286-0.13162-0.6834-0.13162-0.65809 0-1.0378 0.45054t-0.37967 1.2504v3.174h-0.91121v-4.308q0-0.95677-0.03037-1.1694h0.86058q0.0051 0.02531 0.01013 0.13668 0.0051 0.11137 0.01012 0.25818 0.01013 0.14174 0.02025 0.54166h0.01519q0.31386-0.56697 0.7239-0.79984 0.4151-0.23793 1.0276-0.23793 0.90108 0 1.3162 0.45054 0.42017 0.44548 0.42017 1.4782v3.6499z" style="fill:#00a"/>
    <path d="m58.663-37.421q0 0.77453-0.58722 1.1947-0.58216 0.42017-1.6351 0.42017-1.0226 0-1.5794-0.33411-0.55179-0.33917-0.71884-1.0529l0.8049-0.15693q0.11643 0.44042 0.48091 0.64797 0.36448 0.20249 1.0125 0.20249 0.69353 0 1.0125-0.21262 0.32398-0.21261 0.32398-0.63784 0-0.32398-0.22274-0.52648-0.22274-0.20249-0.71884-0.33411l-0.65303-0.17212q-0.78465-0.20249-1.1188-0.39486-0.32905-0.19743-0.51635-0.47585-0.1873-0.27842-0.1873-0.6834 0-0.74921 0.53154-1.139 0.5366-0.39486 1.5592-0.39486 0.90614 0 1.4377 0.31892 0.5366 0.31892 0.67834 1.0226l-0.82008 0.10125q-0.07593-0.36448-0.41004-0.55685-0.32905-0.19743-0.8859-0.19743-0.6176 0-0.91121 0.1873-0.29361 0.1873-0.29361 0.56697 0 0.23286 0.12149 0.38473t0.35942 0.25818q0.23793 0.10631 1.0023 0.29361 0.7239 0.18224 1.0428 0.33917 0.31892 0.15187 0.50116 0.33917 0.1873 0.1873 0.28855 0.43535 0.10124 0.24299 0.10124 0.55685z" style="fill:#00a"/>
    <path d="m60.435-38.454q0 0.94158 0.38979 1.4529 0.38979 0.51129 1.139 0.51129 0.59228 0 0.94664-0.23793 0.35942-0.23793 0.48598-0.60241l0.79984 0.2278q-0.49104 1.2959-2.2325 1.2959-1.2149 0-1.8528-0.7239-0.63278-0.7239-0.63278-2.1515 0-1.3567 0.63278-2.0806 0.63784-0.7239 1.8174-0.7239 2.4147 0 2.4147 2.9108v0.12149zm2.9665-0.69859q-0.07593-0.86565-0.44042-1.2605-0.36448-0.39992-1.0479-0.39992-0.66316 0-1.053 0.44548-0.38473 0.44042-0.4151 1.2149z" style="fill:#00a"/>
    <path d="m69.613-37.421q0 0.77453-0.58722 1.1947-0.58216 0.42017-1.6351 0.42017-1.0226 0-1.5794-0.33411-0.55179-0.33917-0.71884-1.0529l0.8049-0.15693q0.11643 0.44042 0.48092 0.64797 0.36448 0.20249 1.0125 0.20249 0.69353 0 1.0125-0.21262 0.32398-0.21261 0.32398-0.63784 0-0.32398-0.22274-0.52648-0.22274-0.20249-0.71884-0.33411l-0.65303-0.17212q-0.78465-0.20249-1.1188-0.39486-0.32905-0.19743-0.51635-0.47585-0.1873-0.27842-0.1873-0.6834 0-0.74921 0.53154-1.139 0.5366-0.39486 1.5592-0.39486 0.90614 0 1.4377 0.31892 0.5366 0.31892 0.67834 1.0226l-0.82009 0.10125q-0.07593-0.36448-0.41004-0.55685-0.32905-0.19743-0.88589-0.19743-0.6176 0-0.91121 0.1873-0.29361 0.1873-0.29361 0.56697 0 0.23286 0.12149 0.38473t0.35942 0.25818 1.0023 0.29361q0.7239 0.18224 1.0428 0.33917 0.31892 0.15187 0.50116 0.33917 0.1873 0.1873 0.28855 0.43535 0.10124 0.24299 0.10124 0.55685z" style="fill:#00a"/>
   </g>
  </g>
  <text style="fill:black;font-family:sans-serif;font-size:10.367px;line-height:1.25;shape-inside:url(#rect982);white-space:pre" xml:space="preserve"/>
 </g>
</svg>
